src/raw/chat-support/icon_24.svg

<svg width="24" height="24" viewBox="0 0 24 24" fill="none" xmlns="http://www.w3.org/2000/svg">
<path d="M9.07692 18.6923L5.84615 21V16.3846H2.61538C2.18696 16.3846 1.77608 16.2225 1.47314 15.934C1.17019 15.6455 1 15.2542 1 14.8462V2.53846C1 2.13044 1.17019 1.73912 1.47314 1.45061C1.77608 1.16209 2.18696 1 2.61538 1H21.3846C21.813 1 22.2239 1.16209 22.5269 1.45061C22.8298 1.73912 23 2.13044 23 2.53846V7.10547" stroke="#71717A" stroke-width="1.5" stroke-linecap="round" stroke-linejoin="round"/>
<path d="M5.99316 10.7C6.93877 11.2004 7.95149 11.5621 9.00016 11.774" stroke="#71717A" stroke-width="1.5" stroke-linecap="round" stroke-linejoin="round"/>
<path d="M8 5V6.5" stroke="#71717A" stroke-width="1.5" stroke-linecap="round" stroke-linejoin="round"/>
<path d="M16 5V6.5" stroke="#71717A" stroke-width="1.5" stroke-linecap="round" stroke-linejoin="round"/>
<path d="M23 19.3333C23 19.8856 22.5523 20.3333 22 20.3333H20.5V23L16.75 20.3333H14C13.4477 20.3333 13 19.8856 13 19.3333V14C13 13.4477 13.4477 13 14 13H22C22.5523 13 23 13.4477 23 14V19.3333Z" stroke="#71717A" stroke-width="1.5" stroke-linecap="round" stroke-linejoin="round"/>
</svg>

<svg xmlns="http://www.w3.org/2000/svg" width="24" height="24" fill="none" viewBox="0 0 24 24">
  <path stroke="#3F3F46" stroke-linecap="round" stroke-linejoin="round" stroke-width="1.5"
    d="M9.077 18.692 5.847 21v-4.615H2.614c-.428 0-.839-.163-1.142-.451A1.502 1.502 0 0 1 1 14.846V2.538c0-.408.17-.799.473-1.087C1.776 1.162 2.187 1 2.615 1h18.77c.428 0 .839.162 1.142.45.303.29.473.68.473 1.088v4.567" />
  <path stroke="#3F3F46" stroke-linecap="round" stroke-linejoin="round" stroke-width="1.5"
    d="M5.993 10.7c.946.5 1.958.862 3.007 1.074M8 5v1.5M16 5v1.5M23 19.333a1 1 0 0 1-1 1h-1.5V23l-3.75-2.667H14a1 1 0 0 1-1-1V14a1 1 0 0 1 1-1h8a1 1 0 0 1 1 1v5.333Z" />
</svg>
